X:489
T:Dashing White Sergeant #1, The
C:Joe Buchanan's Scottish Tome - Page 170.1
I:170 1
Z:Carl Allison
R:Polka
L:1/8
M:4/4
K:D
F>E | "D"DD/E/ D/E/F/G/ | "D"A/^G/A/B/ Af/e/ | "D"dB "Bm"AF | "E7"BE "A7"E/G/F/E/ |
"D"DD/E/ D/E/F/G/ | "D"A/^G/A/B/ Af | "E7"ed cB | "A7"AA/B/ A/G/F/E/ |
"D"DD/E/ D/E/F/G/ | "D"A/^G/A/B/ Af/e/ | "D"dB "Bm"AF | "E7"BE "A7"E/G/F/E/ |
"D"DD/E/ D/E/F/G/ | "D"A/^G/A/B/ Af | "E7"ed cB | "A7"A2 A |]
E | "A"A(A/B/) c(c/d/) | "A"e/f/e/c/ A>A | "Bm"B(B/c/) d(d/e/) | "Bm"f/g/f/d/ B>B |
"A"cA/A/ "Bm"dA/A/ | "A/C#"eA/A/ "D"fA/A/ | "Em"gf ed | "A7"c/d/B/c/ A>G |
"D"Fd d/c/d/e/ | "D"dA "Bm"A2 | "Em"Be e/d/e/f/ | "Em"eB B2 |
"D"Ad dcde | "D"fd dcde | "Em"f z "A"a z | "D"d4 | (c/B/) "A7"A/G/F/E/ |]

